%
(Header)
(Generated by gcodetools from Inkscape.)
(Using default header. To add your own header create file "header" in the output dir.)
M3
(Header end.)
G21 (All units in mm)
(Tool diameter should be at least 10.0 mm)
(Depth, as a function of radius w, must be 10)
(Rapid feeds use safe Z=1.56789004803 mm)
(Material surface at Z=0.0 mm)
(Change tool to Cylindrical cutter)

G00 Z 0.0000
G00 X 0.0611 Y 0.1581

G01 Z 0.0000 F 100.0000(Penetrate)
G01 X 510.0000 Y 0.1581 Z 0.0000 F 400.0000
G01 X 10.0000 Y 0.1581 Z 0.0000
G01 X 510.0000 Y 0.1581 Z 0.0000
G01 X 9.9389 Y 0.1581 Z 0.0000
G01 X 1.4722 Y 0.1581 Z 0.0000
G01 X -500.0000 Y 0.1581 Z 0.0000
G01 X 0.0000 Y 0.1581 Z 0.0000
G01 X -500.0000 Y 0.1581 Z 0.0000
G01 X 0.0611 Y 0.1581 Z 0.0000
G00 Z 0.0000



(Footer)
M5
G00 X0.0000 Y0.0000
M2
(Using default footer. To add your own footer create file "footer" in the output dir.)
(end)
%