%
(Header)
(Generated by gcodetools from Inkscape.)
(Using default header. To add your own header create file "header" in the output dir.)
M3
(Header end.)
G21 (All units in mm)
(Tool diameter should be at least 10.0 mm)
(Depth, as a function of radius w, must be 10)
(Rapid feeds use safe Z=1.56789004803 mm)
(Material surface at Z=0.0 mm)
(Change tool to Cylindrical cutter)

G00 Z0.000000
G00 X0.061101 Y0.158102

G00 Z5.000000 (Fast pre-penetrate)
G01 Z0.000000 F100.0(Penetrate)
G01 X509.999999 Y0.158102 Z0.000000 F400.000000
G01 X10.000008 Y0.158102 Z0.000000
G01 X509.999999 Y0.158102 Z0.000000
G01 X9.938879 Y0.158102 Z0.000000
G01 X1.472212 Y0.158102 Z0.000000
G01 X-499.999991 Y0.158102 Z0.000000
G01 X0.000000 Y0.158102 Z0.000000
G01 X-499.999991 Y0.158102 Z0.000000
G01 X0.061101 Y0.158102 Z0.000000
G00 Z0.000000



(Footer)
M5
G00 X0.0000 Y0.0000
M2
(Using default footer. To add your own footer create file "footer" in the output dir.)
(end)
%